public/assets/img/svg/embed/stat-notice-icon-location-pin.svg

<?xml version="1.0" encoding="UTF-8" standalone="no"?>
<svg width="41px" height="41px" viewBox="0 0 41 41" version="1.1" xmlns="http://www.w3.org/2000/svg" xmlns:xlink="http://www.w3.org/1999/xlink" xmlns:sketch="http://www.bohemiancoding.com/sketch/ns">
    <!-- Generator: Sketch 3.3.2 (12043) - http://www.bohemiancoding.com/sketch -->
    <title>Fill 9539 + Fill 9540 + Fill 9541</title>
    <desc>Created with Sketch.</desc>
    <defs></defs>
    <g id="Notices" stroke="none" stroke-width="1" fill="none" fill-rule="evenodd" sketch:type="MSPage">
        <g id="1.0-Canvas-view-Copy-5" sketch:type="MSArtboardGroup" transform="translate(-95.000000, -1219.000000)" fill="#0A0B09">
            <g id="Fill-9539-+-Fill-9540-+-Fill-9541" sketch:type="MSLayerGroup" transform="translate(95.000000, 1219.000000)">
                <path d="M20.32,40.1613333 C12.3466667,40.1613333 0.48,38.84 0.48,35.2266667 C0.48,31.7866667 11.08,30.76 14.32,30.5213333 C14.68,30.4933333 15.0133333,30.7733333 15.04,31.1333333 C15.0666667,31.5066667 14.7866667,31.828 14.4133333,31.8533333 C5.82666667,32.468 1.81333333,34.2413333 1.81333333,35.2266667 C1.81333333,36.48 8.17333333,38.828 20.32,38.828 C32.4666667,38.828 38.8133333,36.48 38.8133333,35.2266667 C38.8133333,34.2 34.68,32.4133333 25.7866667,31.8133333 C25.4133333,31.8013333 25.1333333,31.48 25.16,31.108 C25.1866667,30.748 25.5066667,30.468 25.8666667,30.4933333 C29.2266667,30.708 40.1466667,31.7213333 40.1466667,35.2266667 C40.1466667,38.84 28.2933333,40.1613333 20.32,40.1613333" id="Fill-9539" sketch:type="MSShapeGroup"></path>
                <path d="M20.32,1.84 C12.9866667,1.84 7.24,7.64 7.24,15.0533333 C7.24,25.9466667 18.3333333,32.628 20.32,33.748 C22.3066667,32.628 33.4,25.9346667 33.4,15.0533333 C33.4,7.64 27.6533333,1.84 20.32,1.84 L20.32,1.84 Z M20.32,35.1733333 C20.2133333,35.1733333 20.1066667,35.1466667 20.0133333,35.0946667 C19.44,34.8013333 5.90666667,27.76 5.90666667,15.0533333 C5.90666667,6.89333333 12.2266667,0.506666667 20.32,0.506666667 C28.4,0.506666667 34.7333333,6.89333333 34.7333333,15.0533333 C34.7333333,27.76 21.2,34.8013333 20.6133333,35.0946667 C20.52,35.1466667 20.4266667,35.1733333 20.32,35.1733333 L20.32,35.1733333 Z" id="Fill-9540" sketch:type="MSShapeGroup"></path>
                <path d="M20.32,8.108 C17.6533333,8.108 15.48,10.28 15.48,12.9466667 C15.48,15.6 17.6533333,17.7733333 20.32,17.7733333 C22.9866667,17.7733333 25.1466667,15.6 25.1466667,12.9466667 C25.1466667,10.28 22.9866667,8.108 20.32,8.108 L20.32,8.108 Z M20.32,19.108 C16.92,19.108 14.1466667,16.348 14.1466667,12.9466667 C14.1466667,9.53333333 16.92,6.77333333 20.32,6.77333333 C23.72,6.77333333 26.48,9.53333333 26.48,12.9466667 C26.48,16.348 23.72,19.108 20.32,19.108 L20.32,19.108 Z" id="Fill-9541" sketch:type="MSShapeGroup"></path>
            </g>
        </g>
    </g>
</svg>

<svg width="41" height="41" viewBox="0 0 41 41" xmlns="http://www.w3.org/2000/svg"><title>Fill 9539 + Fill 9540 + Fill 9541</title><g fill="#0A0B09" fill-rule="evenodd"><path d="M20.32 40.16c-7.973 0-19.84-1.32-19.84-4.933 0-3.44 10.6-4.467 13.84-4.706.36-.027.693.253.72.613.027.374-.253.695-.627.72-8.586.615-12.6 2.388-12.6 3.374 0 1.253 6.36 3.6 18.507 3.6 12.147 0 18.493-2.347 18.493-3.6 0-1.027-4.133-2.814-13.026-3.414-.374-.012-.654-.333-.627-.705.027-.36.347-.64.707-.615 3.36.215 14.28 1.228 14.28 4.734 0 3.613-11.854 4.934-19.827 4.934M20.32 1.84c-7.333 0-13.08 5.8-13.08 13.213 0 10.894 11.093 17.575 13.08 18.695 1.987-1.12 13.08-7.813 13.08-18.695C33.4 7.64 27.653 1.84 20.32 1.84zm0 33.333c-.107 0-.213-.026-.307-.078C19.44 34.8 5.907 27.76 5.907 15.053c0-8.16 6.32-14.546 14.413-14.546 8.08 0 14.413 6.386 14.413 14.546 0 12.707-13.533 19.748-14.12 20.042-.093.052-.186.078-.293.078z"/><path d="M20.32 8.108c-2.667 0-4.84 2.172-4.84 4.84 0 2.652 2.173 4.825 4.84 4.825s4.827-2.173 4.827-4.826c0-2.667-2.16-4.84-4.827-4.84zm0 11c-3.4 0-6.173-2.76-6.173-6.16 0-3.415 2.773-6.175 6.173-6.175s6.16 2.76 6.16 6.174c0 3.4-2.76 6.16-6.16 6.16z"/></g></svg>
